icons/1_Primary/Yandex.svg

<svg xmlns="http://www.w3.org/2000/svg" viewBox="0 0 1024 1024">
   <circle cx="512" cy="512" r="512" style="fill:#fc3f1d"/>
   <path d="M390.3 542.51q0 14 1.37 28.06h-26.54a35.68 35.68 0 0 1-2.06-9.12h-1.14c-5.26 5.48-12.13 10.72-28.14 10.72-21 0-35.23-13-35.23-36.27s18.53-37 60.17-37h4.35v-6.39c0-12.32-5.95-16.88-19-16.88-14 0-30 5.93-37.29 11.41v-22.56a81.65 81.65 0 0 1 40.5-10.48c28.83 0 43 10.49 43 38.33ZM363.07 517h-3.89c-23.34 0-32.71 4.79-32.71 18.25 0 10.27 5.72 17.11 17.16 17.11 9.61 0 16-4.11 19.45-9.13Zm76.64 53.61h-27.22V455.82H439l.69 9.58h1.37c5.49-5.48 15.1-11.41 31.34-11.41 22.19 0 31.34 10 31.34 32.85v83.73h-27.2v-81c0-8.67-4.35-12.78-14-12.78-9.84 0-17.84 5.25-22.88 11.41ZM522.07 514c0-38.33 18.3-60.46 44.61-60.46 11.9 0 22 5.48 28.83 15.74V412h27.22v158.57h-25.17l-1.37-14.83c-7.32 11.18-17.84 17.11-30.65 17.11-25.62 0-43.47-21-43.47-58.86m28.14 0c0 26 7.32 37.41 22.19 37.41 15.33 0 23.11-11.63 23.11-38.33 0-26.46-7.32-38.1-22-38.1-15.56 0-23.33 11.86-23.33 39m144.35 58.86c-34.77 0-54.45-19.39-54.45-59.32 0-34.68 15.79-60 49-60 27.22 0 44.84 15.06 44.84 55v14.37h-65.67c1.14 19.16 8.69 28.52 28.6 28.52 13.27 0 27.45-5 35.92-10.72v22.13c-8 5.47-20.82 10-38.2 10m-26.31-70h38v-2.28c0-14.37-4.12-25.55-17.62-25.55-13 0-19.67 9.58-20.36 27.83m122.62 29-23.11 38.78h-27.71l36.15-59.77-34.77-55h30.65l22 34.68 19.67-34.68H841l-32.49 55.67L846 570.57h-30.65Zm-532.6 38.76v-19.39c0-26.24-4.58-38.1-15.1-60.91L207.28 412H178l42.32 91.48c8.69 18.71 11.21 29.43 11.21 51.1v16Zm18.07-81.9L310.23 412h-28.14l-33.4 76.66Z" style="fill:#fff"/>
</svg>

<svg width="1024" height="1024" viewBox="0 0 1024 1024" fill="none" xmlns="http://www.w3.org/2000/svg">
<g clip-path="url(#clip0_2_3996)">
<path d="M512 1024C794.77 1024 1024 794.77 1024 512C1024 229.23 794.77 0 512 0C229.23 0 0 229.23 0 512C0 794.77 229.23 1024 512 1024Z" fill="#FF837D"/>
<path d="M390.3 542.51C390.3 551.843 390.757 561.197 391.67 570.57H365.13C364.046 567.634 363.354 564.567 363.07 561.45H361.93C356.67 566.93 349.8 572.17 333.79 572.17C312.79 572.17 298.56 559.17 298.56 535.9C298.56 512.63 317.09 498.9 358.73 498.9H363.08V492.51C363.08 480.19 357.13 475.63 344.08 475.63C330.08 475.63 314.08 481.56 306.79 487.04V464.48C319.151 457.529 333.109 453.917 347.29 454C376.12 454 390.29 464.49 390.29 492.33L390.3 542.51ZM363.07 517H359.18C335.84 517 326.47 521.79 326.47 535.25C326.47 545.52 332.19 552.36 343.63 552.36C353.24 552.36 359.63 548.25 363.08 543.23L363.07 517ZM439.71 570.61H412.49V455.82H439L439.69 465.4H441.06C446.55 459.92 456.16 453.99 472.4 453.99C494.59 453.99 503.74 463.99 503.74 486.84V570.57H476.54V489.57C476.54 480.9 472.19 476.79 462.54 476.79C452.7 476.79 444.7 482.04 439.66 488.2L439.71 570.61ZM522.07 514C522.07 475.67 540.37 453.54 566.68 453.54C578.58 453.54 588.68 459.02 595.51 469.28V412H622.73V570.57H597.56L596.19 555.74C588.87 566.92 578.35 572.85 565.54 572.85C539.92 572.85 522.07 551.85 522.07 513.99M550.21 513.99C550.21 539.99 557.53 551.4 572.4 551.4C587.73 551.4 595.51 539.77 595.51 513.07C595.51 486.61 588.19 474.97 573.51 474.97C557.95 474.97 550.18 486.83 550.18 513.97M694.53 572.83C659.76 572.83 640.08 553.44 640.08 513.51C640.08 478.83 655.87 453.51 689.08 453.51C716.3 453.51 733.92 468.57 733.92 508.51V522.88H668.25C669.39 542.04 676.94 551.4 696.85 551.4C710.12 551.4 724.3 546.4 732.77 540.68V562.81C724.77 568.28 711.95 572.81 694.57 572.81M668.26 502.81H706.26V500.53C706.26 486.16 702.14 474.98 688.64 474.98C675.64 474.98 668.97 484.56 668.28 502.81M790.9 531.81L767.79 570.59H740.08L776.23 510.82L741.46 455.82H772.11L794.11 490.5L813.78 455.82H841L808.51 511.49L846 570.57H815.35L790.9 531.81ZM258.3 570.57V551.18C258.3 524.94 253.72 513.08 243.2 490.27L207.28 412H178L220.32 503.48C229.01 522.19 231.53 532.91 231.53 554.58V570.58L258.3 570.57ZM276.37 488.67L310.23 412H282.09L248.69 488.66L276.37 488.67Z" fill="white"/>
</g>
<defs>
<clipPath id="clip0_2_3996">
<rect width="1024" height="1024" fill="white"/>
</clipPath>
</defs>
</svg>
